packages/dnb-ui-lib/assets/icons/above_the_line.svg

<svg width="16" height="16" viewBox="0 0 16 16" fill="none" xmlns="http://www.w3.org/2000/svg">
<path d="M7.25004 14.0002C7.25004 14.4144 7.58583 14.7502 8.00004 14.7502C8.41425 14.7502 8.75004 14.4144 8.75004 14.0002H7.25004ZM8.00004 6.00016L8.50571 5.44627C8.20959 5.17594 7.75323 5.18632 7.46971 5.46983L8.00004 6.00016ZM4.80304 8.1365C4.51015 8.42939 4.51015 8.90427 4.80304 9.19716C5.09594 9.49005 5.57081 9.49005 5.8637 9.19716L4.80304 8.1365ZM10.1092 9.16855C10.3863 9.47644 10.8605 9.50139 11.1684 9.2243C11.4763 8.94721 11.5013 8.47299 11.2242 8.16511L10.1092 9.16855ZM1.33337 1.5835C0.91916 1.5835 0.583374 1.91928 0.583374 2.3335C0.583374 2.74771 0.91916 3.0835 1.33337 3.0835V1.5835ZM2.66671 3.0835C3.08092 3.0835 3.41671 2.74771 3.41671 2.3335C3.41671 1.91928 3.08092 1.5835 2.66671 1.5835V3.0835ZM5.33337 1.5835C4.91916 1.5835 4.58337 1.91928 4.58337 2.3335C4.58337 2.74771 4.91916 3.0835 5.33337 3.0835V1.5835ZM6.66671 3.0835C7.08092 3.0835 7.41671 2.74771 7.41671 2.3335C7.41671 1.91928 7.08092 1.5835 6.66671 1.5835V3.0835ZM9.33337 1.5835C8.91916 1.5835 8.58337 1.91928 8.58337 2.3335C8.58337 2.74771 8.91916 3.0835 9.33337 3.0835V1.5835ZM10.6667 3.0835C11.0809 3.0835 11.4167 2.74771 11.4167 2.3335C11.4167 1.91928 11.0809 1.5835 10.6667 1.5835V3.0835ZM13.3334 1.5835C12.9192 1.5835 12.5834 1.91928 12.5834 2.3335C12.5834 2.74771 12.9192 3.0835 13.3334 3.0835V1.5835ZM14.6667 3.0835C15.0809 3.0835 15.4167 2.74771 15.4167 2.3335C15.4167 1.91928 15.0809 1.5835 14.6667 1.5835V3.0835ZM8.75004 14.0002V6.00016H7.25004V14.0002H8.75004ZM7.46971 5.46983L4.80304 8.1365L5.8637 9.19716L8.53037 6.53049L7.46971 5.46983ZM8.00004 6.00016C7.49437 6.55406 7.49436 6.55404 7.49434 6.55403C7.49435 6.55403 7.49434 6.55403 7.49435 6.55404C7.49436 6.55405 7.4944 6.55408 7.49446 6.55414C7.49458 6.55425 7.49479 6.55444 7.49509 6.55471C7.49569 6.55526 7.49665 6.55614 7.49795 6.55733C7.50056 6.55972 7.50457 6.5634 7.50993 6.56831C7.52064 6.57815 7.53673 6.59295 7.55775 6.61236C7.5998 6.65119 7.66156 6.70846 7.73949 6.78138C7.8954 6.92729 8.11572 7.13557 8.3722 7.38403C8.88693 7.88267 9.53986 8.53591 10.1092 9.16855L11.2242 8.16511C10.622 7.496 9.94157 6.81591 9.41587 6.30665C9.15213 6.05116 8.92545 5.83685 8.76442 5.68616C8.68388 5.61079 8.61968 5.55125 8.57539 5.51035C8.55324 5.4899 8.53606 5.4741 8.5243 5.4633C8.51842 5.45791 8.5139 5.45376 8.51078 5.45091C8.50922 5.44948 8.50801 5.44837 8.50717 5.4476C8.50674 5.44721 8.50641 5.44691 8.50617 5.44669C8.50604 5.44657 8.50595 5.44648 8.50587 5.44641C8.50583 5.44638 8.50579 5.44634 8.50577 5.44633C8.50574 5.44629 8.50571 5.44627 8.00004 6.00016ZM1.33337 3.0835H2.66671V1.5835H1.33337V3.0835ZM5.33337 3.0835H6.66671V1.5835H5.33337V3.0835ZM9.33337 3.0835H10.6667V1.5835H9.33337V3.0835ZM13.3334 3.0835H14.6667V1.5835H13.3334V3.0835Z" fill="black"/>
</svg>

<svg width="16" height="16" viewBox="0 0 16 16" fill="none" xmlns="http://www.w3.org/2000/svg"><path d="M7.25 14a.75.75 0 001.5 0h-1.5zM8 6l.506-.554a.75.75 0 00-1.036.024L8 6zM4.803 8.136a.75.75 0 001.06 1.061l-1.06-1.06zm5.306 1.033a.75.75 0 001.115-1.004L10.11 9.17zM1.333 1.583a.75.75 0 100 1.5v-1.5zm1.334 1.5a.75.75 0 000-1.5v1.5zm2.666-1.5a.75.75 0 100 1.5v-1.5zm1.334 1.5a.75.75 0 000-1.5v1.5zm2.666-1.5a.75.75 0 100 1.5v-1.5zm1.334 1.5a.75.75 0 000-1.5v1.5zm2.666-1.5a.75.75 0 000 1.5v-1.5zm1.334 1.5a.75.75 0 000-1.5v1.5zM8.75 14V6h-1.5v8h1.5zM7.47 5.47L4.803 8.137l1.06 1.06L8.53 6.53 7.47 5.47zM8 6l-.506.554h.001l.003.003.012.011a25.618 25.618 0 01.23.213c.155.146.376.355.632.603a37.996 37.996 0 011.737 1.785l1.115-1.004a39.483 39.483 0 00-1.808-1.858 52.65 52.65 0 00-.892-.844l-.013-.012-.004-.003v-.001h-.001L8 6zM1.333 3.083h1.334v-1.5H1.333v1.5zm4 0h1.334v-1.5H5.333v1.5zm4 0h1.334v-1.5H9.333v1.5zm4 0h1.334v-1.5h-1.334v1.5z" fill="#000"/></svg>
